static/img/pages/customers/logos/synology.svg

<svg width="140" height="36" viewBox="0 0 140 36" fill="none" xmlns="http://www.w3.org/2000/svg">
<path d="M1.43701 19.314L6.22001 18.864C6.51501 20.472 7.10101 21.654 7.98001 22.411C8.86501 23.163 10.06 23.536 11.562 23.536C13.147 23.536 14.346 23.196 15.159 22.532C15.965 21.848 16.362 21.069 16.362 20.18C16.362 19.602 16.192 19.098 15.858 18.692C15.518 18.296 14.928 17.935 14.087 17.65C13.507 17.43 12.193 17.075 10.145 16.554C7.50401 15.905 5.65001 15.091 4.59501 14.135C3.09701 12.778 2.34601 11.123 2.34601 9.18401C2.34601 7.93601 2.69001 6.75601 3.40701 5.68101C4.10601 4.59001 5.12901 3.75901 6.46101 3.18401C7.78801 2.62801 9.37901 2.33801 11.274 2.33801C14.336 2.33801 16.642 3.01701 18.197 4.36301C19.747 5.73501 20.556 7.53601 20.632 9.79701L15.68 9.96401C15.461 8.73001 15.023 7.82101 14.322 7.26301C13.634 6.70901 12.593 6.43301 11.215 6.43301C9.78501 6.43301 8.66301 6.72701 7.85901 7.32601C7.33101 7.71201 7.07201 8.20601 7.07201 8.83801C7.07201 9.42801 7.31301 9.91401 7.80401 10.328C8.42101 10.864 9.93601 11.408 12.331 11.967C14.732 12.538 16.502 13.129 17.646 13.741C18.794 14.353 19.697 15.185 20.346 16.249C20.99 17.286 21.325 18.611 21.325 20.167C21.325 21.569 20.931 22.897 20.154 24.12C19.376 25.341 18.273 26.265 16.851 26.864C15.425 27.448 13.651 27.76 11.528 27.76C8.43501 27.76 6.05301 27.037 4.39901 25.592C2.74701 24.152 1.75901 22.059 1.43701 19.314Z" fill="white"/>
<path d="M20.7 9.51404H25.666L29.908 22.144L34.041 9.51404H38.882L32.6609 26.615L31.5219 29.736C31.1099 30.779 30.722 31.566 30.351 32.113C29.98 32.67 29.551 33.119 29.068 33.453C28.576 33.785 27.982 34.053 27.288 34.242C26.578 34.433 25.783 34.541 24.893 34.541C23.996 34.541 23.11 34.434 22.238 34.242L21.85 30.549C22.578 30.703 23.239 30.779 23.825 30.779C24.907 30.779 25.712 30.459 26.229 29.822C26.752 29.168 27.15 28.343 27.427 27.351L20.7 9.51404Z" fill="white"/>
<path d="M55.165 27.305H50.489V18.249C50.489 16.342 50.391 15.111 50.186 14.543C49.98 13.981 49.664 13.543 49.203 13.231C48.752 12.922 48.197 12.764 47.562 12.764C46.74 12.764 46.011 12.992 45.355 13.439C44.697 13.883 44.255 14.467 44.014 15.192C43.778 15.935 43.652 17.284 43.652 19.275V27.304H38.986V9.514H43.308V12.12C44.863 10.15 46.816 9.177 49.171 9.177C50.217 9.177 51.165 9.367 52.027 9.726C52.89 10.11 53.547 10.574 53.98 11.161C54.418 11.742 54.726 12.398 54.901 13.127C55.074 13.851 55.164 14.916 55.164 16.281V27.305H55.165Z" fill="white"/>
<path d="M55.192 18.222C55.192 16.645 55.581 15.147 56.351 13.676C57.118 12.22 58.209 11.102 59.622 10.327C61.034 9.55304 62.611 9.17804 64.35 9.17804C67.046 9.17804 69.246 10.048 70.96 11.796C72.682 13.544 73.545 15.753 73.545 18.417C73.545 21.108 72.674 23.327 70.939 25.101C69.205 26.865 67.015 27.761 64.382 27.761C62.756 27.761 61.204 27.384 59.721 26.65C58.242 25.912 57.119 24.834 56.352 23.404C55.581 21.988 55.192 20.26 55.192 18.222ZM59.978 18.459C59.978 20.234 60.394 21.592 61.239 22.514C62.079 23.463 63.112 23.936 64.346 23.936C65.579 23.936 66.611 23.463 67.451 22.514C68.279 21.592 68.695 20.219 68.695 18.437C68.695 16.68 68.279 15.335 67.451 14.405C66.611 13.475 65.579 12.992 64.346 12.992C63.112 12.992 62.079 13.475 61.239 14.405C60.394 15.335 59.978 16.694 59.978 18.459Z" fill="white"/>
<path d="M79.2821 0.39502V23.362C79.2821 24.458 79.3621 25.18 79.5151 25.53C79.6741 25.893 79.9161 26.159 80.2421 26.339C80.5721 26.523 81.1861 26.616 82.0711 26.616V27.305H73.5841V26.616C74.3801 26.616 74.9211 26.536 75.2251 26.362C75.5061 26.192 75.7331 25.934 75.8991 25.548C76.0641 25.173 76.1401 24.444 76.1401 23.362V7.68802C76.1401 5.71602 76.1001 4.50902 76.0151 4.05302C75.9341 3.60202 75.7911 3.30002 75.6031 3.13802C75.4121 2.96902 75.1711 2.87402 74.8801 2.87402C74.5621 2.87402 74.1561 2.99202 73.6681 3.18402L73.3461 2.51102L78.4441 0.39502H79.2821V0.39502Z" fill="white"/>
<path d="M90.4951 9.45801C93.1281 9.45801 95.2341 10.455 96.8291 12.449C98.1791 14.146 98.8531 16.098 98.8531 18.302C98.8531 19.859 98.4871 21.427 97.7401 23.007C96.9941 24.593 95.9701 25.792 94.6561 26.597C93.3471 27.406 91.8991 27.81 90.2951 27.81C87.6711 27.81 85.5931 26.769 84.0551 24.695C82.7541 22.947 82.1021 20.98 82.1021 18.794C82.1021 17.202 82.497 15.635 83.284 14.073C84.08 12.491 85.1171 11.344 86.4081 10.574C87.6931 9.83601 89.0571 9.45801 90.4951 9.45801ZM89.9151 10.732C89.2441 10.732 88.5741 10.906 87.8981 11.312C87.2231 11.714 86.6741 12.398 86.2581 13.383C85.8421 14.387 85.6321 15.656 85.6321 17.216C85.6321 19.733 86.1431 21.881 87.1381 23.721C88.1441 25.53 89.4631 26.45 91.1001 26.45C92.3321 26.45 93.3381 25.936 94.1241 24.94C94.9241 23.936 95.3231 22.21 95.3231 19.752C95.3231 16.68 94.6601 14.28 93.3381 12.515C92.4401 11.316 91.3001 10.732 89.9151 10.732Z" fill="white"/>
<path d="M102.652 20.955C101.598 20.418 100.797 19.711 100.227 18.787C99.667 17.851 99.385 16.838 99.385 15.724C99.385 14.007 100.021 12.527 101.308 11.313C102.598 10.08 104.253 9.45905 106.264 9.45905C107.908 9.45905 109.334 9.84605 110.539 10.656H114.202C114.747 10.656 115.059 10.673 115.155 10.705C115.235 10.746 115.291 10.803 115.337 10.865C115.407 10.983 115.451 11.183 115.451 11.469C115.451 11.799 115.417 12.042 115.353 12.156C115.315 12.22 115.251 12.278 115.155 12.303C115.059 12.341 114.747 12.357 114.197 12.357H111.939C112.654 13.269 113.008 14.434 113.008 15.849C113.008 17.458 112.382 18.847 111.156 19.99C109.923 21.138 108.27 21.717 106.205 21.717C105.347 21.717 104.474 21.592 103.576 21.311C103.05 21.807 102.69 22.219 102.512 22.579C102.323 22.948 102.226 23.249 102.226 23.491C102.226 23.721 102.33 23.921 102.543 24.134C102.745 24.327 103.157 24.476 103.759 24.558C104.104 24.624 104.993 24.671 106.397 24.712C108.985 24.794 110.666 24.894 111.423 25.023C112.596 25.181 113.535 25.625 114.233 26.318C114.93 27.019 115.278 27.875 115.278 28.896C115.278 30.3 114.607 31.638 113.278 32.875C111.328 34.695 108.77 35.607 105.62 35.607C103.197 35.607 101.149 35.074 99.478 33.98C98.536 33.347 98.071 32.701 98.071 32.015C98.071 31.726 98.138 31.417 98.267 31.115C98.477 30.64 98.912 30.019 99.562 29.187C99.647 29.066 100.284 28.392 101.449 27.154C100.801 26.748 100.338 26.404 100.074 26.086C99.804 25.777 99.667 25.42 99.667 25.033C99.667 24.584 99.84 24.07 100.193 23.478C100.553 22.875 101.375 22.027 102.652 20.955ZM102.497 27.305C101.921 27.93 101.49 28.53 101.191 29.094C100.892 29.621 100.753 30.137 100.753 30.588C100.753 31.207 101.112 31.725 101.84 32.176C103.101 32.946 104.92 33.346 107.293 33.346C109.553 33.346 111.217 32.946 112.298 32.151C113.379 31.362 113.911 30.52 113.911 29.622C113.911 28.981 113.59 28.518 112.946 28.239C112.29 27.962 110.994 27.801 109.044 27.76C106.207 27.674 104.021 27.51 102.497 27.305ZM105.948 10.415C105.016 10.415 104.25 10.802 103.617 11.54C102.994 12.278 102.684 13.386 102.684 14.919C102.684 16.894 103.108 18.424 103.958 19.517C104.613 20.341 105.432 20.753 106.429 20.753C107.381 20.753 108.168 20.39 108.774 19.677C109.387 18.963 109.692 17.85 109.692 16.332C109.692 14.332 109.268 12.783 108.404 11.659C107.757 10.843 106.943 10.415 105.948 10.415Z" fill="white"/>
<path d="M115.989 9.96301H124.093V10.655H123.699C123.127 10.655 122.702 10.789 122.417 11.023C122.135 11.276 121.997 11.58 121.997 11.937C121.997 12.439 122.197 13.114 122.622 13.981L126.847 22.746L130.712 13.171C130.928 12.645 131.034 12.139 131.034 11.616C131.034 11.393 130.98 11.227 130.9 11.116C130.796 10.982 130.639 10.862 130.425 10.79C130.216 10.705 129.832 10.656 129.295 10.656V9.96301H134.9V10.655C134.433 10.704 134.073 10.811 133.822 10.959C133.566 11.115 133.291 11.392 132.991 11.798C132.874 11.981 132.649 12.456 132.342 13.253L125.321 30.524C124.636 32.21 123.742 33.467 122.631 34.325C121.522 35.19 120.453 35.604 119.426 35.604C118.679 35.604 118.068 35.405 117.579 34.963C117.101 34.539 116.86 34.051 116.86 33.488C116.86 32.965 117.033 32.554 117.381 32.226C117.731 31.892 118.218 31.744 118.821 31.744C119.241 31.744 119.819 31.881 120.538 32.148C121.043 32.322 121.365 32.433 121.494 32.433C121.874 32.433 122.281 32.226 122.737 31.839C123.184 31.452 123.633 30.7 124.088 29.589L125.311 26.571L119.077 13.54C118.887 13.145 118.581 12.664 118.171 12.078C117.853 11.641 117.594 11.342 117.392 11.18C117.102 10.992 116.631 10.808 115.989 10.653V9.96301V9.96301Z" fill="white"/>
<path d="M134.869 8.81401V5.34601H136.392C136.702 5.34601 136.933 5.38601 137.099 5.45901C137.265 5.51501 137.379 5.62201 137.479 5.77101C137.577 5.94101 137.621 6.11301 137.621 6.29401C137.621 6.54801 137.546 6.75401 137.38 6.91601C137.23 7.08801 136.984 7.20101 136.652 7.24601C136.777 7.30401 136.867 7.36701 136.923 7.41601C137.057 7.53601 137.185 7.68801 137.299 7.86601L137.903 8.81401H137.334L136.875 8.09801C136.74 7.90201 136.628 7.73201 136.543 7.62501C136.449 7.50801 136.383 7.43801 136.311 7.37901C136.249 7.33801 136.178 7.32201 136.108 7.29901C136.054 7.28301 135.963 7.27601 135.846 7.27601H135.324V8.81401H134.869V8.81401ZM135.324 6.88401H136.302C136.509 6.88401 136.675 6.87101 136.79 6.81201C136.912 6.78701 136.997 6.70101 137.058 6.61101C137.127 6.51101 137.154 6.40501 137.154 6.29401C137.154 6.13601 137.096 6.00401 136.974 5.89601C136.859 5.79201 136.67 5.73901 136.42 5.73901H135.324V6.88401Z" fill="white"/>
<path d="M138.73 6.94999C138.73 8.33599 137.603 9.47499 136.223 9.47499C134.831 9.47499 133.704 8.33499 133.704 6.94999C133.704 5.55499 134.831 4.43799 136.223 4.43799C137.604 4.43799 138.73 5.55599 138.73 6.94999Z" stroke="white" stroke-width="0.25"/>
</svg>

<svg version="1.2" baseProfile="tiny" id="Layer_1" xmlns="http://www.w3.org/2000/svg" xmlns:xlink="http://www.w3.org/1999/xlink" x="0px" y="0px" preserveAspectRatio="xMidYMid meet" width="140" height="36" viewBox="0 0 140 36" xml:space="preserve">
  <g class="syno-logo-group">
    <path d="M1.437,19.314l4.783-0.45c0.295,1.608,0.881,2.79,1.76,3.547c0.885,0.752,2.08,1.125,3.582,1.125
          c1.585,0,2.784-0.34,3.597-1.004c0.806-0.684,1.203-1.463,1.203-2.352c0-0.578-0.17-1.082-0.504-1.488
          c-0.34-0.396-0.93-0.757-1.771-1.042c-0.58-0.22-1.894-0.575-3.942-1.096c-2.641-0.649-4.495-1.463-5.55-2.419
          c-1.498-1.357-2.249-3.012-2.249-4.951c0-1.248,0.344-2.428,1.061-3.503C4.106,4.59,5.129,3.759,6.461,3.184
          c1.327-0.556,2.918-0.846,4.813-0.846c3.062,0,5.368,0.679,6.923,2.025c1.55,1.372,2.359,3.173,2.435,5.434l-4.952,0.167
          c-0.219-1.234-0.657-2.143-1.358-2.701c-0.688-0.554-1.729-0.83-3.107-0.83c-1.43,0-2.552,0.294-3.356,0.893
          c-0.528,0.386-0.787,0.88-0.787,1.512c0,0.59,0.241,1.076,0.732,1.49c0.617,0.536,2.132,1.08,4.527,1.639
          c2.401,0.571,4.171,1.162,5.315,1.774c1.148,0.612,2.051,1.444,2.7,2.508c0.644,1.037,0.979,2.362,0.979,3.918
          c0,1.402-0.394,2.73-1.171,3.953c-0.778,1.221-1.881,2.145-3.303,2.744c-1.426,0.584-3.2,0.896-5.323,0.896
          c-3.093,0-5.475-0.723-7.129-2.168C2.747,24.152,1.759,22.059,1.437,19.314z"></path>
    <path d="M20.7,9.514h4.966l4.242,12.63l4.133-12.63h4.841l-6.221,17.101l-1.139,3.121
          c-0.412,1.043-0.8,1.83-1.171,2.377c-0.371,0.557-0.8,1.006-1.283,1.34c-0.492,0.332-1.086,0.6-1.78,0.789
          c-0.71,0.191-1.505,0.299-2.395,0.299c-0.897,0-1.783-0.107-2.655-0.299l-0.388-3.693c0.728,0.154,1.389,0.23,1.975,0.23
          c1.082,0,1.887-0.32,2.404-0.957c0.523-0.654,0.921-1.479,1.198-2.471L20.7,9.514z"></path>
    <path d="M55.165,27.305h-4.676v-9.056c0-1.907-0.098-3.138-0.303-3.706c-0.206-0.562-0.522-1-0.983-1.312
          c-0.451-0.309-1.006-0.467-1.641-0.467c-0.822,0-1.551,0.228-2.207,0.675c-0.658,0.444-1.1,1.028-1.341,1.753
          c-0.236,0.743-0.362,2.092-0.362,4.083v8.029h-4.666V9.514h4.322v2.606c1.555-1.97,3.508-2.943,5.863-2.943
          c1.046,0,1.994,0.19,2.856,0.549c0.863,0.384,1.52,0.848,1.953,1.435c0.438,0.581,0.746,1.237,0.921,1.966
          c0.173,0.724,0.263,1.789,0.263,3.154V27.305z"></path>
    <path d="M55.192,18.222c0-1.577,0.389-3.075,1.159-4.546c0.767-1.456,1.858-2.574,3.271-3.349
          c1.412-0.774,2.989-1.149,4.728-1.149c2.696,0,4.896,0.87,6.61,2.618c1.722,1.748,2.585,3.957,2.585,6.621
          c0,2.691-0.871,4.91-2.606,6.684c-1.734,1.764-3.924,2.66-6.557,2.66c-1.626,0-3.178-0.377-4.661-1.111
          c-1.479-0.738-2.602-1.816-3.369-3.246C55.581,21.988,55.192,20.26,55.192,18.222z M59.978,18.459c0,1.775,0.416,3.133,1.261,4.055
          c0.84,0.949,1.873,1.422,3.107,1.422c1.233,0,2.265-0.473,3.105-1.422c0.828-0.922,1.244-2.295,1.244-4.077
          c0-1.757-0.416-3.102-1.244-4.032c-0.84-0.93-1.872-1.413-3.105-1.413c-1.234,0-2.267,0.483-3.107,1.413
          C60.394,15.335,59.978,16.694,59.978,18.459z"></path>
    <path d="M79.282,0.395v22.967c0,1.096,0.08,1.818,0.233,2.168c0.159,0.363,0.401,0.629,0.727,0.809
          c0.33,0.184,0.944,0.277,1.829,0.277v0.689h-8.487v-0.689c0.796,0,1.337-0.08,1.641-0.254c0.281-0.17,0.508-0.428,0.674-0.814
          c0.165-0.375,0.241-1.104,0.241-2.186V7.688c0-1.972-0.04-3.179-0.125-3.635c-0.081-0.451-0.224-0.753-0.412-0.915
          c-0.191-0.169-0.432-0.264-0.723-0.264c-0.318,0-0.724,0.118-1.212,0.31l-0.322-0.673l5.098-2.116H79.282z"></path>
    <path d="M90.495,9.458c2.633,0,4.739,0.997,6.334,2.991c1.35,1.697,2.024,3.649,2.024,5.853
          c0,1.557-0.366,3.125-1.113,4.705c-0.746,1.586-1.77,2.785-3.084,3.59c-1.309,0.809-2.757,1.213-4.361,1.213
          c-2.624,0-4.702-1.041-6.24-3.115c-1.301-1.748-1.953-3.715-1.953-5.901c0-1.592,0.395-3.159,1.182-4.721
          c0.796-1.582,1.833-2.729,3.124-3.499C87.693,9.836,89.057,9.458,90.495,9.458z M89.915,10.732c-0.671,0-1.341,0.174-2.017,0.58
          c-0.675,0.402-1.224,1.086-1.64,2.071c-0.416,1.004-0.626,2.273-0.626,3.833c0,2.517,0.511,4.665,1.506,6.505
          c1.006,1.809,2.325,2.729,3.962,2.729c1.232,0,2.238-0.514,3.024-1.51c0.8-1.004,1.199-2.73,1.199-5.188
          c0-3.072-0.663-5.472-1.985-7.237C92.44,11.316,91.3,10.732,89.915,10.732z"></path>
    <path d="M102.652,20.955c-1.054-0.537-1.855-1.244-2.425-2.168c-0.56-0.936-0.842-1.949-0.842-3.063
          c0-1.717,0.636-3.197,1.923-4.411c1.29-1.233,2.945-1.854,4.956-1.854c1.644,0,3.07,0.387,4.275,1.197h3.663
          c0.545,0,0.857,0.017,0.953,0.049c0.08,0.041,0.136,0.098,0.182,0.16c0.07,0.118,0.114,0.318,0.114,0.604
          c0,0.33-0.034,0.573-0.098,0.687c-0.038,0.064-0.102,0.122-0.198,0.147c-0.096,0.038-0.408,0.054-0.958,0.054h-2.258
          c0.715,0.912,1.069,2.077,1.069,3.492c0,1.609-0.626,2.998-1.852,4.141c-1.233,1.148-2.886,1.727-4.951,1.727
          c-0.858,0-1.731-0.125-2.629-0.406c-0.526,0.496-0.886,0.908-1.064,1.268c-0.189,0.369-0.286,0.67-0.286,0.912
          c0,0.23,0.104,0.43,0.317,0.643c0.202,0.193,0.614,0.342,1.216,0.424c0.345,0.066,1.234,0.113,2.638,0.154
          c2.588,0.082,4.269,0.182,5.026,0.311c1.173,0.158,2.112,0.602,2.81,1.295c0.697,0.701,1.045,1.557,1.045,2.578
          c0,1.404-0.671,2.742-2,3.979c-1.95,1.82-4.508,2.732-7.658,2.732c-2.423,0-4.471-0.533-6.142-1.627
          c-0.942-0.633-1.407-1.279-1.407-1.965c0-0.289,0.067-0.598,0.196-0.9c0.21-0.475,0.645-1.096,1.295-1.928
          c0.085-0.121,0.722-0.795,1.887-2.033c-0.648-0.406-1.111-0.75-1.375-1.068c-0.27-0.309-0.407-0.666-0.407-1.053
          c0-0.449,0.173-0.963,0.526-1.555C100.553,22.875,101.375,22.027,102.652,20.955z M102.497,27.305
          c-0.576,0.625-1.007,1.225-1.306,1.789c-0.299,0.527-0.438,1.043-0.438,1.494c0,0.619,0.359,1.137,1.087,1.588
          c1.261,0.77,3.08,1.17,5.453,1.17c2.26,0,3.924-0.4,5.005-1.195c1.081-0.789,1.613-1.631,1.613-2.529
          c0-0.641-0.321-1.104-0.965-1.383c-0.656-0.277-1.952-0.438-3.902-0.479C106.207,27.674,104.021,27.51,102.497,27.305z
          M105.948,10.415c-0.932,0-1.698,0.387-2.331,1.125c-0.623,0.738-0.933,1.846-0.933,3.379c0,1.975,0.424,3.505,1.274,4.598
          c0.655,0.824,1.474,1.236,2.471,1.236c0.952,0,1.739-0.363,2.345-1.076c0.613-0.714,0.918-1.827,0.918-3.345
          c0-2-0.424-3.549-1.288-4.673C107.757,10.843,106.943,10.415,105.948,10.415z"></path>
    <path d="M115.989,9.963h8.104v0.692h-0.394c-0.572,0-0.997,0.134-1.282,0.368c-0.282,0.253-0.42,0.557-0.42,0.914
          c0,0.502,0.2,1.177,0.625,2.044l4.225,8.765l3.865-9.575c0.216-0.526,0.322-1.032,0.322-1.555c0-0.223-0.054-0.389-0.134-0.5
          c-0.104-0.134-0.261-0.254-0.475-0.326c-0.209-0.085-0.593-0.134-1.13-0.134V9.963h5.605v0.692
          c-0.467,0.049-0.827,0.156-1.078,0.304c-0.256,0.156-0.531,0.433-0.831,0.839c-0.117,0.183-0.342,0.658-0.649,1.455l-7.021,17.271
          c-0.685,1.686-1.579,2.943-2.69,3.801c-1.109,0.865-2.178,1.279-3.205,1.279c-0.747,0-1.358-0.199-1.847-0.641
          c-0.478-0.424-0.719-0.912-0.719-1.475c0-0.523,0.173-0.934,0.521-1.262c0.35-0.334,0.837-0.482,1.44-0.482
          c0.42,0,0.998,0.137,1.717,0.404c0.505,0.174,0.827,0.285,0.956,0.285c0.38,0,0.787-0.207,1.243-0.594
          c0.447-0.387,0.896-1.139,1.351-2.25l1.223-3.018l-6.234-13.031c-0.19-0.395-0.496-0.876-0.906-1.462
          c-0.318-0.437-0.577-0.736-0.779-0.898c-0.29-0.188-0.761-0.372-1.403-0.527V9.963z"></path>
    <path d="M134.869,8.814V5.346h1.523c0.31,0,0.541,0.04,0.707,0.113c0.166,0.056,0.28,0.163,0.38,0.312
          c0.098,0.17,0.142,0.342,0.142,0.523c0,0.254-0.075,0.46-0.241,0.622c-0.15,0.172-0.396,0.285-0.728,0.33
          c0.125,0.058,0.215,0.121,0.271,0.17c0.134,0.12,0.262,0.272,0.376,0.45l0.604,0.948h-0.569l-0.459-0.716
          c-0.135-0.196-0.247-0.366-0.332-0.473c-0.094-0.117-0.16-0.187-0.232-0.246c-0.062-0.041-0.133-0.057-0.203-0.08
          c-0.054-0.016-0.145-0.023-0.262-0.023h-0.522v1.538H134.869z M135.324,6.884h0.978c0.207,0,0.373-0.013,0.488-0.072
          c0.122-0.025,0.207-0.111,0.268-0.201c0.069-0.1,0.096-0.206,0.096-0.317c0-0.158-0.058-0.29-0.18-0.398
          c-0.115-0.104-0.304-0.157-0.554-0.157h-1.096V6.884z"></path>
  </g>
  <path fill="none" stroke="#FFFFFF" stroke-width="0.25" d="M138.73,6.95c0,1.386-1.127,2.525-2.507,2.525
          c-1.392,0-2.519-1.14-2.519-2.525c0-1.395,1.127-2.512,2.519-2.512C137.604,4.438,138.73,5.556,138.73,6.95z"></path>
</svg>
